X:1
T:Title
%%score { 1 | ( 2 3 ) }
L:1/8
M:6/8
K:D
V:1 treble nm="Grand Piano"
V:2 bass 
V:3 bass 
V:1
 z3 z2[Q:1/4=87] A | [FA]FA [Fd]cB | [FA]BA [DF]2 [FA] | [GA]EF [A,EG]2 B | %4
 [GB][FA][EG] [DF]2 [FA] | [FA]FA [Fd]cB | [FA]BA [DF]2 [Fd] | [Ac][GB][FA] ABc | [Fd]6 | %9
 e>dc cBA | ABA [FA]3 | e>dc cBA | ABc [Fd]3 | [FA][DF][EG] [FA][Fd][Fd] | BdB [FA]2 [Fd] | %15
 c>BA ABc |[M:5/8] [Fd]-[Fd]- [Fd]3 |] %17
V:2
 z3 z2 F | z[K:treble] DF[K:bass] z[K:treble] AG | z[K:treble] GF[K:bass] .[D,,D,]3 | z CD A,,2 G | %4
 A,,B,,C, .[D,,D,]3 | z[K:treble] DF[K:bass] z[K:treble] AG | z[K:treble] GF[K:bass] .[D,,D,]3 | %7
 [A,,A,]2 [A,,A,][K:treble] [A,EG][A,EG][A,EG] | [D,D]6 | [A,CG]>[A,DF][A,E] [A,EG][A,DG][A,CG] | %10
 [A,CG][A,CG][A,CG] [D,D]3 | [A,CG]>[A,DF][A,E] [A,EG][A,DG][A,CG] | %12
 [A,CG][A,DG][A,EG][K:bass] [D,D]3 | [D,D][D,A,][D,A,] [D,A,][D,A,][D,D] | %14
 [G,DG][B,DG][G,DG][K:bass] [D,D]2 [D,D] | [A,EG]>[A,DG][A,CG] [A,CG][A,DG][A,EG] | %16
[M:5/8][K:bass] [D,D]-[D,D]- [D,D]3 |] %17
V:3
 x6 | .[D,,D,]3[K:treble][K:bass] .[D,,D,]3[K:treble] | .[D,,D,]3[K:treble][K:bass] z3 | %3
 .[A,,A,]3 z3 | x6 | .[D,,D,]3[K:treble][K:bass] .[D,,D,]3[K:treble] | %6
 .[D,,D,]3[K:treble][K:bass] z3 | x3[K:treble] x3 | x6 | x6 | x6 | x6 | x3[K:bass] x3 | x6 | %14
 x3[K:bass] x3 | x6 |[M:5/8][K:bass] x5 |] %17

